img/icons/mime/large/doc.svg

<svg height="140.9" width="125.3" xmlns="http://www.w3.org/2000/svg" xmlns:xlink="http://www.w3.org/1999/xlink"><linearGradient id="a" gradientTransform="matrix(.939922 0 0 .896911 -12.081733 -3.352424)" gradientUnits="userSpaceOnUse" x1="24" x2="73" y1="16.4" y2="73.4"><stop offset="0" stop-color="#fff"/><stop offset="1" stop-color="#fff" stop-opacity="0"/></linearGradient><linearGradient id="b" gradientTransform="scale(1.0801 .92584)" gradientUnits="userSpaceOnUse" spreadMethod="reflect" x1="-54.6" x2="-66.5" y1="63.6" y2="49.7"><stop offset="0" stop-color="#900"/><stop offset="1" stop-color="#fff"/></linearGradient><linearGradient id="c" gradientTransform="matrix(.999352 0 0 1.000649 -151.1197 -.37325)" gradientUnits="userSpaceOnUse" spreadMethod="reflect" x1="52.7" x2="47.1" y1="81.2" y2="75.1"><stop offset="0" stop-color="#eed680"/><stop offset=".3" stop-color="#dfb546"/><stop offset="1" stop-color="#d1940c"/></linearGradient><rect fill="none" height="133.4" rx="22.9" stroke="#000" stroke-linejoin="round" stroke-opacity=".5" stroke-width="7.5" width="117.8" x="3.8" y="3.8"/><rect fill="#bab5ab" height="133.4" rx="22.9" stroke="#000" stroke-width="3.8" width="117.8" x="3.6" y="3.7"/><path d="m100.3 132.6h-75.7c-11.6 0-17.3-5.7-17.3-17.4 0 0 27.6-66.5 110.4-76.6v76.6c0 11.7-5.7 17.4-17.4 17.4z" fill="#fff" fill-opacity=".3"/><path d="m109.5 92.8v5.4h-11.6c-2.5 0-4.4.8-5.7 2.5s-1.9 4.3-1.9 7.7.6 5.9 1.8 7.7c1.2 1.7 3.1 2.5 5.8 2.5h11.6v5.3h-13.6c-4.2 0-7.4-1.3-9.7-4-2.2-2.7-3.3-6.5-3.3-11.5 0-5.1 1.1-8.9 3.3-11.6 2.3-2.7 5.5-4 9.7-4zm-61.4 15.6c0-2.6.2-4.8.7-6.6.6-1.8 1.4-3.4 2.5-4.7 2.5-3.2 6.7-4.7 12.6-4.7 5.6 0 9.8 1.5 12.5 4.6.5.6.9 1.3 1.4 2.2 0 .1.2.4.4.9s.4 1.1.6 1.7c.6 1.9.9 4.1.9 6.6 0 4.9-1.1 8.7-3.2 11.3-2.7 3.1-6.9 4.7-12.6 4.7-5.9 0-10.1-1.6-12.6-4.7-2.2-2.5-3.2-6.3-3.2-11.3zm15.8-10.9c-2.8 0-4.9.6-6.3 2-1.7 1.6-2.5 4.5-2.5 8.9 0 3.4.4 5.9 1.4 7.5 1.2 2.2 3.7 3.4 7.4 3.4 3.5 0 5.9-1.2 7.4-3.4.9-1.6 1.4-4.1 1.4-7.5 0-3.5-.5-6-1.4-7.5-1.4-2.3-3.8-3.4-7.4-3.4zm-48.4-4.7h16.5c4.2 0 7.4 1.3 9.6 4s3.3 6.5 3.3 11.6c0 5-1.1 8.8-3.3 11.5s-5.4 4-9.6 4h-16.5zm6.5 25.8h7.9c2.6 0 4.5-.8 5.8-2.5 1.2-1.7 1.8-4.3 1.8-7.7 0-3.5-.6-6-1.8-7.7-1.1-1.7-3.1-2.5-5.8-2.5h-7.9z" fill="#fff"/><path d="m110.1 93.5v5.4h-11.5c-2.5 0-4.5.8-5.7 2.5-1.3 1.7-2 4.3-2 7.7s.6 5.9 1.8 7.6 3.2 2.6 5.9 2.6h11.5v5.3h-13.5c-4.2 0-7.4-1.3-9.7-4-2.2-2.7-3.4-6.5-3.4-11.5 0-5.1 1.2-9 3.4-11.6 2.2-2.7 5.5-4 9.7-4zm-61.4 15.6c0-2.6.3-4.8.8-6.6s1.4-3.4 2.5-4.8c2.5-3.1 6.7-4.6 12.5-4.6 5.7 0 9.9 1.5 12.6 4.6.5.6.9 1.3 1.4 2.2 0 .1.1.4.4.9.2.5.4 1.1.6 1.7.6 1.9.8 4.1.8 6.6 0 4.9-1 8.6-3.2 11.3-2.6 3.1-6.8 4.7-12.6 4.7s-10-1.6-12.5-4.7c-2.2-2.5-3.3-6.3-3.3-11.3zm15.8-10.9c-2.7 0-4.8.6-6.2 1.9-1.7 1.6-2.6 4.6-2.6 9 0 3.4.5 5.9 1.4 7.5 1.3 2.2 3.8 3.3 7.4 3.3 3.5 0 6-1.1 7.4-3.3 1-1.6 1.5-4.1 1.5-7.5 0-3.5-.5-6-1.4-7.6-1.4-2.2-3.9-3.3-7.5-3.3zm-48.3-4.7h16.5c4.2 0 7.4 1.3 9.6 4 2.1 2.7 3.2 6.5 3.2 11.6 0 4.9-1.1 8.8-3.2 11.5-2.2 2.7-5.4 4-9.6 4h-16.5zm6.5 25.8h7.8c2.7 0 4.6-.8 5.8-2.5 1.3-1.7 1.9-4.3 1.9-7.7 0-3.5-.6-6-1.8-7.7s-3.1-2.5-5.9-2.5h-7.8z"/><g stroke="#000" transform="translate(130.96752 -9.864116)"><path d="m-81.3 63.1 5 1.1-2-3.1z" stroke-width=".7"/><path d="m-62.2 51s1.6-.3 1.6-.3 1.4 1.1 1.4 1.1c0-.6-.3-.9-1-1.2 0 0 .1-.3.1-.3.7-.1.9-.1 1.4-.7 0 0-1.9.3-1.9.3s-1.2-.9-1.2-.9c0 .6.2.7.8 1.1 0 0-1.2.9-1.2.9zm.7-2.6s.8.5.8.5c1.5-.4 1.9.4 2.3-1 0 0-.3-.1-.3-.1-.5.7-.9.7-1.7.5 0 0 .2-.8.2-.8s-.4-.1-.4-.1-.2.8-.2.8-.6-.1-.6-.1-.1.3-.1.3zm3.1-2.6c0 .8-.1.9-.9 1.4 0 0 .4-1.6.4-1.6-1.8 0-1.6 1.4-.8 1.9 1.2.4 2.2-.9 1.3-1.7zm-1.6-1s2.2.4 2.2.4.1-.3.1-.3c-1-.2-1.6-.3-1.7-1.3 0 0-.3-.1-.3-.1s.1.9.1.9-.4.4-.4.4zm.3-1.6s2.3.5 2.3.5v-.3c-.3-.1-2.2-.5-1.3-1.2.2-.2 1.2 0 1.6.1v-.4c-.3 0-2-.4-1.4-.9.3-.3 1.3-.1 1.6 0 0 0 .1-.5.1-.5-.5-.1-1.3-.3-1.9-.2-.4.2-.7 1.6-.6 2.1-.1.2.1.2.1.4 0 0-.5.4-.5.4zm.3 2.7s-.2 1.2-.2 1.2c-.4-.5-.5-.9.2-1.2z" fill="none" stroke-width=".2"/><path d="m-90.4 65.7c15.3-16.3 46.8-48.4 58.4-36.6 10.3 12.3-29.6 37.7-46.4 48.5z" fill="url(#b)" stroke-width="3.6"/><path d="m-80.3 76.3s-3.6 7-1.8 9c1.8 1.6-15.7 6.9-18.6 6.6 0 0-2.5 5.4-6 1.8-3.6-3.7 2-6.3 2-6.3 0-4.2 4.7-20.2 6.4-18.4 1.8 1.8 9.1-1.8 9.1-1.8s8.9 9.1 8.9 9.1z" fill="url(#c)" fill-opacity=".8" stroke-width="2.7"/><path d="m-105.5 92.5s14.5-14.3 14.5-14.3" fill="none" stroke-linecap="round" stroke-linejoin="round" stroke-width=".7"/></g><path d="m24.6 7.3h75.7c11.7 0 17.4 5.7 17.4 17.4 0 0-79.3.9-110.4 91.3v-91.3c0-10.3 7-17.4 17.3-17.4z" fill="url(#a)"/></svg>

<svg xmlns:svg="http://www.w3.org/2000/svg" xmlns="http://www.w3.org/2000/svg" xmlns:xlink="http://www.w3.org/1999/xlink" id="svg1" width="125.3" height="140.9" version="1">
<style>
.s0{
  stop-color:#ffffff;
  stop-opacity:1;
}
.s1{
  stop-color:#46a046;
  stop-opacity:1;
}
.s2{
  stop-color:#df421e;
  stop-opacity:1;
}
.s3{
  stop-color:#ada7c8;
  stop-opacity:1;
}
.s4{
  stop-color:#eed680;
  stop-opacity:1;
}

</style>  <metadata id="metadata15"/>
  <defs id="defs3">
    <linearGradient id="linearGradient3587">
      <stop id="stop3589" offset="0" style="stop-color:#efe0cd;stop-opacity:0.6"/>
      <stop id="stop3591" offset="1" style="stop-color:#cececd;stop-opacity:0.2"/>
    </linearGradient>
    <linearGradient id="linearGradient2832">
      <stop offset="0" id="stop2834" class="s0"/>
      <stop offset="1" id="stop2836" style="stop-color:#ffffff;stop-opacity:0"/>
    </linearGradient>
    <linearGradient id="linearGradient839">
      <stop offset="0" id="stop840" class="s1"/>
      <stop offset="0.4" id="stop841" class="s2"/>
      <stop offset="0.7" id="stop842" class="s3"/>
      <stop offset="1" id="stop843" class="s4"/>
    </linearGradient>
    <linearGradient xlink:href="#linearGradient839" id="linearGradient836" x1="0" y1="0.5" x2="1" y2="0.5"/>
    <linearGradient xlink:href="#linearGradient2832" id="linearGradient2830" gradientTransform="matrix(0.939922,0,0,0.896911,-12.081733,-3.3524237)" x1="24" y1="16.4" x2="73" y2="73.4" gradientUnits="userSpaceOnUse"/>
    <linearGradient gradientUnits="userSpaceOnUse" gradientTransform="scale(1.0801,0.92584)" spreadMethod="reflect" y2="55.1" x2="76.6" y1="73.5" x1="95.1" id="linearGradient674" xlink:href="#linearGradient869"/>
    <linearGradient y2="0.5" x2="1" y1="0.5" x1="0" id="linearGradient1373" xlink:href="#linearGradient839"/>
    <linearGradient id="linearGradient1363">
      <stop id="stop1365" offset="0" class="s1"/>
      <stop id="stop1367" offset="0.4" class="s2"/>
      <stop id="stop1369" offset="0.7" class="s3"/>
      <stop id="stop1371" offset="1" class="s4"/>
    </linearGradient>
    <linearGradient gradientUnits="userSpaceOnUse" gradientTransform="scale(0.999352,1.000649)" spreadMethod="reflect" y2="75.1" x2="47.1" y1="81.2" x1="52.7" id="linearGradient904" xlink:href="#linearGradient907"/>
    <linearGradient id="linearGradient866">
      <stop id="stop867" offset="0" style="stop-color:#ffff00;stop-opacity:1"/>
      <stop id="stop901" offset="0.4" style="stop-color:#ffea00;stop-opacity:1"/>
      <stop id="stop868" offset="1" style="stop-color:#ffd600;stop-opacity:1"/>
    </linearGradient>
    <linearGradient id="linearGradient869">
      <stop id="stop870" offset="0" style="stop-color:#990000;stop-opacity:1"/>
      <stop id="stop871" offset="1" class="s0"/>
    </linearGradient>
    <linearGradient id="linearGradient907">
      <stop id="stop908" offset="0" class="s4"/>
      <stop id="stop911" offset="0.3" style="stop-color:#dfb546;stop-opacity:1"/>
      <stop id="stop910" offset="1" style="stop-color:#d1940c;stop-opacity:1"/>
    </linearGradient>
    <linearGradient y2="49.7" x2="-66.5" y1="63.6" x1="-54.6" spreadMethod="reflect" gradientTransform="scale(1.0801,0.92584)" gradientUnits="userSpaceOnUse" id="linearGradient2167" xlink:href="#linearGradient869"/>
    <linearGradient y2="75.1" x2="47.1" y1="81.2" x1="52.7" spreadMethod="reflect" gradientTransform="matrix(0.999352,0,0,1.000649,-151.1197,-0.37325)" gradientUnits="userSpaceOnUse" id="linearGradient2169" xlink:href="#linearGradient907"/>
  </defs>
  <rect id="rect834" width="117.8" height="133.4" x="3.8" y="3.8" ry="22.9" rx="22.9" style="fill:none;stroke-linejoin:round;stroke-opacity:0.5;stroke-width:7.5;stroke:#000"/>
  <rect id="rect828" width="117.8" height="133.4" x="3.6" y="3.7" ry="22.9" rx="22.9" style="fill:#bab5ab;stroke-width:3.8;stroke:#000"/>
  <path d="M100.3 132.6L24.6 132.6C13 132.6 7.3 126.9 7.3 115.2 7.3 115.2 34.9 48.7 117.7 38.6L117.7 115.2C117.7 126.9 112 132.6 100.3 132.6z" id="path2838" style="fill-opacity:0.3;fill:#fff"/>
  <path id="path2171" d="M109.5 92.8L109.5 98.2 97.9 98.2C95.4 98.2 93.5 99 92.2 100.7 90.9 102.4 90.3 105 90.3 108.4 90.3 111.8 90.9 114.3 92.1 116.1 93.3 117.8 95.2 118.6 97.9 118.6L109.5 118.6 109.5 123.9 95.9 123.9C91.7 123.9 88.5 122.6 86.2 119.9 84 117.2 82.9 113.4 82.9 108.4 82.9 103.3 84 99.5 86.2 96.8 88.5 94.1 91.7 92.8 95.9 92.8L109.5 92.8zM48.1 108.4C48.1 105.8 48.3 103.6 48.8 101.8 49.4 100 50.2 98.4 51.3 97.1 53.8 93.9 58 92.4 63.9 92.4 69.5 92.4 73.7 93.9 76.4 97 76.9 97.6 77.3 98.3 77.8 99.2 77.8 99.3 78 99.6 78.2 100.1 78.4 100.6 78.6 101.2 78.8 101.8 79.4 103.7 79.7 105.9 79.7 108.4 79.7 113.3 78.6 117.1 76.5 119.7 73.8 122.8 69.6 124.4 63.9 124.4 58 124.4 53.8 122.8 51.3 119.7 49.1 117.2 48.1 113.4 48.1 108.4zM63.9 97.5C61.1 97.5 59 98.1 57.6 99.5 55.9 101.1 55.1 104 55.1 108.4 55.1 111.8 55.5 114.3 56.5 115.9 57.7 118.1 60.2 119.3 63.9 119.3 67.4 119.3 69.8 118.1 71.3 115.9 72.2 114.3 72.7 111.8 72.7 108.4 72.7 104.9 72.2 102.4 71.3 100.9 69.9 98.6 67.5 97.5 63.9 97.5zM15.5 92.8L32 92.8C36.2 92.8 39.4 94.1 41.6 96.8 43.8 99.5 44.9 103.3 44.9 108.4 44.9 113.4 43.8 117.2 41.6 119.9 39.4 122.6 36.2 123.9 32 123.9L15.5 123.9 15.5 92.8zM22 118.6L29.9 118.6C32.5 118.6 34.4 117.8 35.7 116.1 36.9 114.4 37.5 111.8 37.5 108.4 37.5 104.9 36.9 102.4 35.7 100.7 34.6 99 32.6 98.2 29.9 98.2L22 98.2 22 118.6z" style="fill:#fff;font-family:Trek;font-size:40;stroke-width:1"/>
  <path id="path905" d="M110.1 93.5L110.1 98.9 98.6 98.9C96.1 98.9 94.1 99.7 92.9 101.4 91.6 103.1 90.9 105.7 90.9 109.1 90.9 112.5 91.5 115 92.7 116.7 93.9 118.4 95.9 119.3 98.6 119.3L110.1 119.3 110.1 124.6 96.6 124.6C92.4 124.6 89.2 123.3 86.9 120.6 84.7 117.9 83.5 114.1 83.5 109.1 83.5 104 84.7 100.1 86.9 97.5 89.1 94.8 92.4 93.5 96.6 93.5L110.1 93.5zM48.7 109.1C48.7 106.5 49 104.3 49.5 102.5 50 100.7 50.9 99.1 52 97.7 54.5 94.6 58.7 93.1 64.5 93.1 70.2 93.1 74.4 94.6 77.1 97.7 77.6 98.3 78 99 78.5 99.9 78.5 100 78.6 100.3 78.9 100.8 79.1 101.3 79.3 101.9 79.5 102.5 80.1 104.4 80.3 106.6 80.3 109.1 80.3 114 79.3 117.7 77.1 120.4 74.5 123.5 70.3 125.1 64.5 125.1 58.7 125.1 54.5 123.5 52 120.4 49.8 117.9 48.7 114.1 48.7 109.1zM64.5 98.2C61.8 98.2 59.7 98.8 58.3 100.1 56.6 101.7 55.7 104.7 55.7 109.1 55.7 112.5 56.2 115 57.1 116.6 58.4 118.8 60.9 119.9 64.5 119.9 68 119.9 70.5 118.8 71.9 116.6 72.9 115 73.4 112.5 73.4 109.1 73.4 105.6 72.9 103.1 72 101.5 70.6 99.3 68.1 98.2 64.5 98.2zM16.2 93.5L32.7 93.5C36.9 93.5 40.1 94.8 42.3 97.5 44.4 100.2 45.5 104 45.5 109.1 45.5 114 44.4 117.9 42.3 120.6 40.1 123.3 36.9 124.6 32.7 124.6L16.2 124.6 16.2 93.5zM22.7 119.3L30.5 119.3C33.2 119.3 35.1 118.5 36.3 116.8 37.6 115.1 38.2 112.5 38.2 109.1 38.2 105.6 37.6 103.1 36.4 101.4 35.2 99.7 33.3 98.9 30.5 98.9L22.7 98.9 22.7 119.3z" style="font-family:Trek;font-size:40;stroke-width:1"/>
  <g transform="translate(130.96752,-9.8641157)" id="g2160">
    <path id="path873" d="M-81.3 63.1L-76.3 64.2 -78.3 61.1 -81.3 63.1z" style="stroke-width:0.7;stroke:#000"/>
    <path d="M-62.2 51C-62.2 51-60.6 50.7-60.6 50.7 -60.6 50.7-59.2 51.8-59.2 51.8 -59.2 51.2-59.5 50.9-60.2 50.6 -60.2 50.6-60.1 50.3-60.1 50.3 -59.4 50.2-59.2 50.2-58.7 49.6 -58.7 49.6-60.6 49.9-60.6 49.9 -60.6 49.9-61.8 49-61.8 49 -61.8 49.6-61.6 49.7-61 50.1 -61 50.1-62.2 51-62.2 51zM-61.5 48.4C-61.5 48.4-60.7 48.9-60.7 48.9 -59.2 48.5-58.8 49.3-58.4 47.9 -58.4 47.9-58.7 47.8-58.7 47.8 -59.2 48.5-59.6 48.5-60.4 48.3 -60.4 48.3-60.2 47.5-60.2 47.5 -60.2 47.5-60.6 47.4-60.6 47.4 -60.6 47.4-60.8 48.2-60.8 48.2 -60.8 48.2-61.4 48.1-61.4 48.1 -61.4 48.1-61.5 48.4-61.5 48.4zM-58.4 45.8C-58.4 46.6-58.5 46.7-59.3 47.2 -59.3 47.2-58.9 45.6-58.9 45.6 -60.7 45.6-60.5 47-59.7 47.5 -58.5 47.9-57.5 46.6-58.4 45.8zM-60 44.8C-60 44.8-57.8 45.2-57.8 45.2 -57.8 45.2-57.7 44.9-57.7 44.9 -58.7 44.7-59.3 44.6-59.4 43.6 -59.4 43.6-59.7 43.5-59.7 43.5 -59.7 43.5-59.6 44.4-59.6 44.4 -59.6 44.4-60 44.8-60 44.8zM-59.7 43.2C-59.7 43.2-57.4 43.7-57.4 43.7 -57.4 43.7-57.4 43.4-57.4 43.4 -57.7 43.3-59.6 42.9-58.7 42.2 -58.5 42-57.5 42.2-57.1 42.3 -57.1 42.3-57.1 41.9-57.1 41.9 -57.4 41.9-59.1 41.5-58.5 41 -58.2 40.7-57.2 40.9-56.9 41 -56.9 41-56.8 40.5-56.8 40.5 -57.3 40.4-58.1 40.2-58.7 40.3 -59.1 40.5-59.4 41.9-59.3 42.4 -59.4 42.6-59.2 42.6-59.2 42.8 -59.2 42.8-59.7 43.2-59.7 43.2zM-59.4 45.9C-59.4 45.9-59.6 47.1-59.6 47.1 -60 46.6-60.1 46.2-59.4 45.9z" id="path900" style="fill:none;stroke-width:0.2;stroke:#000"/>
    <path id="path879" d="M-90.4 65.7C-75.1 49.4-43.6 17.3-32 29.1 -21.7 41.4-61.6 66.8-78.4 77.6L-90.4 65.7z" style="fill:url(#linearGradient2167);stroke-width:3.6;stroke:#000"/>
    <path id="path868" d="M-80.3 76.3C-80.3 76.3-83.9 83.3-82.1 85.3 -80.3 86.9-97.8 92.2-100.7 91.9 -100.7 91.9-103.2 97.3-106.7 93.7 -110.3 90-104.7 87.4-104.7 87.4 -104.7 83.2-100 67.2-98.3 69 -96.5 70.8-89.2 67.2-89.2 67.2 -89.2 67.2-80.3 76.3-80.3 76.3z" style="fill-opacity:0.8;fill:url(#linearGradient2169);stroke-width:2.7;stroke:#000"/>
    <path id="path876" d="M-105.5 92.5C-105.5 92.5-91 78.2-91 78.2" style="fill:none;stroke-linecap:round;stroke-linejoin:round;stroke-width:0.7;stroke:#000"/>
  </g>
  <path d="M24.6 7.3L100.3 7.3C112 7.3 117.7 13 117.7 24.7 117.7 24.7 38.4 25.6 7.3 116L7.3 24.7C7.3 14.4 14.3 7.3 24.6 7.3z" id="rect2063" fill="url(#linearGradient2830)"/>
</svg>
